web/images/icoAddPack.svg

<?xml version="1.0" encoding="UTF-8" standalone="no"?>
<!-- Created with Inkscape (http://www.inkscape.org/) -->

<svg
   xmlns:dc="http://purl.org/dc/elements/1.1/"
   xmlns:cc="http://creativecommons.org/ns#"
   xmlns:rdf="http://www.w3.org/1999/02/22-rdf-syntax-ns#"
   xmlns:svg="http://www.w3.org/2000/svg"
   xmlns="http://www.w3.org/2000/svg"
   xmlns:sodipodi="http://sodipodi.sourceforge.net/DTD/sodipodi-0.dtd"
   xmlns:inkscape="http://www.inkscape.org/namespaces/inkscape"
   width="500"
   height="500"
   viewBox="0 0 500 500.00001"
   id="svg2"
   version="1.1"
   inkscape:version="0.91 r13725"
   sodipodi:docname="icoAddPack.svg"
   inkscape:export-filename="/home/gsp/Sync/SERGE/web/images/icoAddPack.png"
   inkscape:export-xdpi="51"
   inkscape:export-ydpi="51">
  <defs
     id="defs4" />
  <sodipodi:namedview
     id="base"
     pagecolor="#e5e5e5"
     bordercolor="#666666"
     borderopacity="1.0"
     inkscape:pageopacity="0"
     inkscape:pageshadow="2"
     inkscape:zoom="0.7"
     inkscape:cx="277.90468"
     inkscape:cy="267.42639"
     inkscape:document-units="px"
     inkscape:current-layer="layer1"
     showgrid="false"
     units="px"
     inkscape:window-width="1024"
     inkscape:window-height="576"
     inkscape:window-x="0"
     inkscape:window-y="24"
     inkscape:window-maximized="1"
     showguides="false" />
  <metadata
     id="metadata7">
    <rdf:RDF>
      <cc:Work
         rdf:about="">
        <dc:format>image/svg+xml</dc:format>
        <dc:type
           rdf:resource="http://purl.org/dc/dcmitype/StillImage" />
        <dc:title />
      </cc:Work>
    </rdf:RDF>
  </metadata>
  <g
     inkscape:label="Calque 1"
     inkscape:groupmode="layer"
     id="layer1"
     transform="translate(0,-552.36216)">
    <rect
       style="opacity:1;fill:none;fill-opacity:1;stroke:none;stroke-width:16;stroke-linecap:round;stroke-linejoin:round;stroke-miterlimit:4;stroke-dasharray:none;stroke-dashoffset:0;stroke-opacity:1"
       id="rect3344"
       width="560"
       height="559"
       x="-7.1428571"
       y="499.36215"
       rx="1.0941418"
       ry="0.73968297"
       inkscape:export-xdpi="81.595413"
       inkscape:export-ydpi="81.595413" />
    <rect
       style="opacity:1;fill:none;fill-opacity:1;stroke:#ffffff;stroke-width:16;stroke-linecap:round;stroke-linejoin:round;stroke-miterlimit:4;stroke-dasharray:none;stroke-dashoffset:0;stroke-opacity:1"
       id="rect3336"
       width="144.13408"
       height="144.13408"
       x="27.5"
       y="880.72809"
       rx="1.1344517"
       ry="0.76978612"
       inkscape:export-xdpi="81.595413"
       inkscape:export-ydpi="81.595413" />
    <rect
       style="opacity:1;fill:none;fill-opacity:1;stroke:#ffffff;stroke-width:16;stroke-linecap:round;stroke-linejoin:round;stroke-miterlimit:4;stroke-dasharray:none;stroke-dashoffset:0;stroke-opacity:1"
       id="rect3336-6"
       width="144.13408"
       height="144.13408"
       x="27.5"
       y="580.72809"
       rx="1.1344517"
       ry="0.76978612"
       inkscape:export-xdpi="81.595413"
       inkscape:export-ydpi="81.595413" />
    <rect
       style="opacity:1;fill:none;fill-opacity:1;stroke:#ffffff;stroke-width:16;stroke-linecap:round;stroke-linejoin:round;stroke-miterlimit:4;stroke-dasharray:none;stroke-dashoffset:0;stroke-opacity:1"
       id="rect3336-7"
       width="144.13408"
       height="144.13408"
       x="177.5"
       y="880.72809"
       rx="1.1344517"
       ry="0.76978612"
       inkscape:export-xdpi="81.595413"
       inkscape:export-ydpi="81.595413" />
    <rect
       style="opacity:1;fill:none;fill-opacity:1;stroke:#ffffff;stroke-width:16;stroke-linecap:round;stroke-linejoin:round;stroke-miterlimit:4;stroke-dasharray:none;stroke-dashoffset:0;stroke-opacity:1"
       id="rect3336-7-5"
       width="144.13408"
       height="144.13408"
       x="327.5"
       y="880.72809"
       rx="1.1344517"
       ry="0.76978612"
       inkscape:export-xdpi="81.595413"
       inkscape:export-ydpi="81.595413" />
    <circle
       style="opacity:1;fill:none;fill-opacity:1;stroke:#ffffff;stroke-width:16;stroke-linecap:round;stroke-linejoin:round;stroke-miterlimit:4;stroke-dasharray:none;stroke-dashoffset:0;stroke-opacity:1"
       id="path4201"
       cx="471.49728"
       cy="580.88843"
       r="71.071426"
       inkscape:export-xdpi="81.595413"
       inkscape:export-ydpi="81.595413" />
    <text
       xml:space="preserve"
       style="font-style:normal;font-variant:normal;font-weight:normal;font-stretch:normal;font-size:239.83740234px;line-height:125%;font-family:ubuntu;-inkscape-font-specification:ubuntu;text-align:center;letter-spacing:0px;word-spacing:0px;text-anchor:middle;fill:#ffffff;fill-opacity:1;stroke:none;stroke-width:16;stroke-linecap:butt;stroke-linejoin:miter;stroke-opacity:1"
       x="471.10794"
       y="653.06641"
       id="text4203"
       sodipodi:linespacing="125%"
       inkscape:export-xdpi="81.595413"
       inkscape:export-ydpi="81.595413"><tspan
         sodipodi:role="line"
         id="tspan4205"
         x="471.10794"
         y="653.06641">+</tspan></text>
    <path
       style="fill:none;fill-rule:evenodd;stroke:#ffffff;stroke-width:16;stroke-linecap:round;stroke-linejoin:round;stroke-miterlimit:4;stroke-dasharray:none;stroke-opacity:1"
       d="m 174.14276,580.64134 0,144.23867 -100.000003,0 177.857143,154.98209 175,-154.98363 -100,0 0,-144.23713 z"
       id="path3345"
       inkscape:connector-curvature="0"
       sodipodi:nodetypes="cccccccc"
       inkscape:export-xdpi="81.595413"
       inkscape:export-ydpi="81.595413" />
    <path
       style="fill:none;fill-rule:evenodd;stroke:#ffffff;stroke-width:16;stroke-linecap:round;stroke-linejoin:round;stroke-opacity:1"
       d="m 27.337253,725.13773 0,159.09903 148.997497,0 0,-69.19545 -107.581242,-90.40865 z"
       id="path4147"
       inkscape:connector-curvature="0"
       inkscape:export-xdpi="81.595413"
       inkscape:export-ydpi="81.595413"
       sodipodi:nodetypes="cccccc" />
    <path
       style="fill:none;fill-rule:evenodd;stroke:#ffffff;stroke-width:16;stroke-linecap:round;stroke-linejoin:round;stroke-opacity:1"
       d="m 471.74125,727.21931 0,159.09903 -148.9975,0 0,-69.19545 107.58125,-90.40865 z"
       id="path4147-3"
       inkscape:connector-curvature="0"
       inkscape:export-xdpi="81.595413"
       inkscape:export-ydpi="81.595413" />
    <path
       inkscape:connector-curvature="0"
       style="opacity:1;fill:none;fill-opacity:1;stroke:#ffffff;stroke-width:16;stroke-linecap:round;stroke-linejoin:round;stroke-miterlimit:4;stroke-dasharray:none;stroke-dashoffset:0;stroke-opacity:1"
       d="m 328.57061,580.76713 c -0.62849,0 -1.13477,0.34307 -1.13477,0.76953 l 0,142.59571 c 0,0.42646 0.50628,0.76953 1.13477,0.76953 l 141.86523,0 c 0.62849,0 1.13477,-0.34307 1.13477,-0.76953 l 0,-72.13672 a 71.071426,71.071426 0 0 1 -0.13672,0.004 71.071426,71.071426 0 0 1 -71.07227,-71.07227 71.071426,71.071426 0 0 1 0.008,-0.16016 l -71.79882,0 z"
       id="rect3336-6-3-2-6"
       inkscape:export-xdpi="81.595413"
       inkscape:export-ydpi="81.595413" />
  </g>
</svg>

<?xml version="1.0" encoding="UTF-8" standalone="no"?>
<!-- Created with Inkscape (http://www.inkscape.org/) -->

<svg
   xmlns:dc="http://purl.org/dc/elements/1.1/"
   xmlns:cc="http://creativecommons.org/ns#"
   xmlns:rdf="http://www.w3.org/1999/02/22-rdf-syntax-ns#"
   xmlns:svg="http://www.w3.org/2000/svg"
   xmlns="http://www.w3.org/2000/svg"
   xmlns:sodipodi="http://sodipodi.sourceforge.net/DTD/sodipodi-0.dtd"
   xmlns:inkscape="http://www.inkscape.org/namespaces/inkscape"
   version="1.1"
   id="svg2"
   width="191"
   height="300"
   viewBox="0 0 191 300"
   sodipodi:docname="icoPremium (copie).svg"
   inkscape:version="0.92.1 r15371"
   inkscape:export-filename="/home/gsp/Sync/SERGE/web/images/icoAddPack.png"
   inkscape:export-xdpi="96"
   inkscape:export-ydpi="96">
  <metadata
     id="metadata8">
    <rdf:RDF>
      <cc:Work
         rdf:about="">
        <dc:format>image/svg+xml</dc:format>
        <dc:type
           rdf:resource="http://purl.org/dc/dcmitype/StillImage" />
        <dc:title></dc:title>
      </cc:Work>
    </rdf:RDF>
  </metadata>
  <defs
     id="defs6" />
  <sodipodi:namedview
     pagecolor="#cccccc"
     bordercolor="#666666"
     borderopacity="1"
     objecttolerance="10"
     gridtolerance="10"
     guidetolerance="10"
     inkscape:pageopacity="0"
     inkscape:pageshadow="2"
     inkscape:window-width="1024"
     inkscape:window-height="576"
     id="namedview4"
     showgrid="false"
     inkscape:zoom="1.0242"
     inkscape:cx="-243.23926"
     inkscape:cy="113.21387"
     inkscape:window-x="0"
     inkscape:window-y="24"
     inkscape:window-maximized="1"
     inkscape:current-layer="svg2"
     inkscape:snap-nodes="false"
     inkscape:snap-others="false" />
  <g
     transform="matrix(0.34936907,0,0,0.34936907,-2.8929549,-133.70417)"
     id="g37">
    <rect
       inkscape:export-ydpi="81.595413"
       inkscape:export-xdpi="81.595413"
       ry="0.76978612"
       rx="1.1344517"
       y="880.72809"
       x="27.5"
       height="144.13408"
       width="144.13408"
       id="rect3336"
       style="opacity:1;fill:none;fill-opacity:1;stroke:#ffffff;stroke-width:16;stroke-linecap:round;stroke-linejoin:round;stroke-miterlimit:4;stroke-dasharray:none;stroke-dashoffset:0;stroke-opacity:1" />
    <rect
       inkscape:export-ydpi="81.595413"
       inkscape:export-xdpi="81.595413"
       ry="0.76978612"
       rx="1.1344517"
       y="580.72809"
       x="27.5"
       height="144.13408"
       width="144.13408"
       id="rect3336-6"
       style="opacity:1;fill:none;fill-opacity:1;stroke:#ffffff;stroke-width:16;stroke-linecap:round;stroke-linejoin:round;stroke-miterlimit:4;stroke-dasharray:none;stroke-dashoffset:0;stroke-opacity:1" />
    <rect
       inkscape:export-ydpi="81.595413"
       inkscape:export-xdpi="81.595413"
       ry="0.76978612"
       rx="1.1344517"
       y="880.72809"
       x="177.5"
       height="144.13408"
       width="144.13408"
       id="rect3336-7"
       style="opacity:1;fill:none;fill-opacity:1;stroke:#ffffff;stroke-width:16;stroke-linecap:round;stroke-linejoin:round;stroke-miterlimit:4;stroke-dasharray:none;stroke-dashoffset:0;stroke-opacity:1" />
    <rect
       inkscape:export-ydpi="81.595413"
       inkscape:export-xdpi="81.595413"
       ry="0.76978612"
       rx="1.1344517"
       y="880.72809"
       x="327.5"
       height="144.13408"
       width="144.13408"
       id="rect3336-7-5"
       style="opacity:1;fill:none;fill-opacity:1;stroke:#ffffff;stroke-width:16;stroke-linecap:round;stroke-linejoin:round;stroke-miterlimit:4;stroke-dasharray:none;stroke-dashoffset:0;stroke-opacity:1" />
    <circle
       inkscape:export-ydpi="81.595413"
       inkscape:export-xdpi="81.595413"
       r="71.071426"
       cy="580.88843"
       cx="471.49728"
       id="path4201"
       style="opacity:1;fill:none;fill-opacity:1;stroke:#ffffff;stroke-width:16;stroke-linecap:round;stroke-linejoin:round;stroke-miterlimit:4;stroke-dasharray:none;stroke-dashoffset:0;stroke-opacity:1" />
    <text
       inkscape:export-ydpi="81.595413"
       inkscape:export-xdpi="81.595413"
       id="text4203"
       y="653.06641"
       x="471.10794"
       style="font-style:normal;font-variant:normal;font-weight:normal;font-stretch:normal;line-height:0%;font-family:ubuntu;-inkscape-font-specification:ubuntu;text-align:center;letter-spacing:0px;word-spacing:0px;text-anchor:middle;fill:#ffffff;fill-opacity:1;stroke:none;stroke-width:16;stroke-linecap:butt;stroke-linejoin:miter;stroke-opacity:1"
       xml:space="preserve"><tspan
         style="font-size:239.83740234px;line-height:1.25"
         y="653.06641"
         x="471.10794"
         id="tspan4205"
         sodipodi:role="line">+</tspan></text>
    <path
       inkscape:export-ydpi="81.595413"
       inkscape:export-xdpi="81.595413"
       sodipodi:nodetypes="cccccccc"
       inkscape:connector-curvature="0"
       id="path3345"
       d="M 174.14276,580.64134 V 724.88001 H 74.142757 L 251.9999,879.8621 l 175,-154.98363 h -100 V 580.64134 Z"
       style="fill:none;fill-rule:evenodd;stroke:#ffffff;stroke-width:16;stroke-linecap:round;stroke-linejoin:round;stroke-miterlimit:4;stroke-dasharray:none;stroke-opacity:1" />
    <path
       sodipodi:nodetypes="cccccc"
       inkscape:export-ydpi="81.595413"
       inkscape:export-xdpi="81.595413"
       inkscape:connector-curvature="0"
       id="path4147"
       d="M 27.337253,725.13773 V 884.23676 H 176.33475 V 815.04131 L 68.753508,724.63266 Z"
       style="fill:none;fill-rule:evenodd;stroke:#ffffff;stroke-width:16;stroke-linecap:round;stroke-linejoin:round;stroke-opacity:1" />
    <path
       inkscape:export-ydpi="81.595413"
       inkscape:export-xdpi="81.595413"
       inkscape:connector-curvature="0"
       id="path4147-3"
       d="M 471.74125,727.21931 V 886.31834 H 322.74375 V 817.12289 L 430.325,726.71424 Z"
       style="fill:none;fill-rule:evenodd;stroke:#ffffff;stroke-width:16;stroke-linecap:round;stroke-linejoin:round;stroke-opacity:1" />
    <path
       inkscape:export-ydpi="81.595413"
       inkscape:export-xdpi="81.595413"
       id="rect3336-6-3-2-6"
       d="m 328.57061,580.76713 c -0.62849,0 -1.13477,0.34307 -1.13477,0.76953 v 142.59571 c 0,0.42646 0.50628,0.76953 1.13477,0.76953 h 141.86523 c 0.62849,0 1.13477,-0.34307 1.13477,-0.76953 v -72.13672 a 71.071426,71.071426 0 0 1 -0.13672,0.004 71.071426,71.071426 0 0 1 -71.07227,-71.07227 71.071426,71.071426 0 0 1 0.008,-0.16016 H 328.5708 Z"
       style="opacity:1;fill:none;fill-opacity:1;stroke:#ffffff;stroke-width:16;stroke-linecap:round;stroke-linejoin:round;stroke-miterlimit:4;stroke-dasharray:none;stroke-dashoffset:0;stroke-opacity:1"
       inkscape:connector-curvature="0" />
  </g>
</svg>
